; generated by Slic3r 1.0.1 on 2014-07-03 at 23:33:12

; layer_height = 0.4
; perimeters = 3
; top_solid_layers = 3
; bottom_solid_layers = 3
; fill_density = 0.4
; perimeter_speed = 30
; infill_speed = 60
; travel_speed = 130
; nozzle_diameter = 0.5
; filament_diameter = 3
; extrusion_multiplier = 1
; perimeters extrusion width = 0.50mm
; infill extrusion width = 0.53mm
; solid infill extrusion width = 0.53mm
; top infill extrusion width = 0.53mm
; first layer extrusion width = 1.00mm

G21 ; set units to millimeters
M107
M190 S60 ; wait for bed temperature to be reached
M104 S180 ; set temperature
G28 ; home all axes
G1 Z5 F5000 ; lift nozzle
M109 S180 ; wait for temperature to be reached
G90 ; use absolute coordinates
G92 E0
M82 ; use absolute distances for extrusion
G1 F1800.000 E-1.00000
G92 E0
G1 Z0.500 F7800.000
G1 X73.360 Y88.870 F7800.000
G1 E1.00000 F1800.000
G1 X73.850 Y88.500 E1.03877 F540.000
G1 X74.570 Y88.000 E1.09412
G1 X75.080 Y87.680 E1.13214
G1 X75.610 Y87.400 E1.16999
G1 X76.390 Y87.040 E1.22424
G1 X77.480 Y86.650 E1.29734
G1 X78.330 Y86.420 E1.35295
G1 X78.950 Y86.280 E1.39308
G1 X79.580 Y86.200 E1.43318
G1 X80.450 Y86.130 E1.48830
G1 X81.000 Y86.110 E1.52305
G1 X118.990 Y86.110 E3.92195
G1 X119.540 Y86.130 E3.95670
G1 X120.410 Y86.200 E4.01182
G1 X121.040 Y86.280 E4.05192
G1 X121.660 Y86.420 E4.09205
G1 X122.510 Y86.650 E4.14766
G1 X123.430 Y86.960 E4.20896
G1 X124.370 Y87.390 E4.27423
G1 X124.930 Y87.680 E4.31405
G1 X125.470 Y88.020 E4.35435
G1 X126.180 Y88.520 E4.40918
G1 X127.080 Y89.290 E4.48398
G1 X128.120 Y90.360 E4.57820
G1 X128.490 Y90.850 E4.61697
G1 X128.990 Y91.570 E4.67232
G1 X129.310 Y92.080 E4.71034
G1 X129.590 Y92.610 E4.74819
G1 X129.950 Y93.390 E4.80244
G1 X130.340 Y94.480 E4.87554
G1 X130.570 Y95.330 E4.93114
G1 X130.780 Y96.500 E5.00620
G1 X130.860 Y97.370 E5.06137
G1 X130.890 Y98.000 E5.10120
G1 X130.890 Y102.000 E5.35378
G1 X130.860 Y102.640 E5.39424
G1 X130.780 Y103.500 E5.44878
G1 X130.570 Y104.660 E5.52322
G1 X130.340 Y105.510 E5.57882
G1 X129.960 Y106.570 E5.64993
G1 X129.600 Y107.360 E5.70475
G1 X129.310 Y107.930 E5.74513
G1 X128.970 Y108.470 E5.78543
G1 X128.470 Y109.180 E5.84026
G1 X127.700 Y110.080 E5.91505
G1 X126.630 Y111.120 E6.00928
G1 X126.140 Y111.490 E6.04805
G1 X125.420 Y111.990 E6.10340
G1 X124.910 Y112.310 E6.14142
G1 X124.380 Y112.590 E6.17927
G1 X123.600 Y112.950 E6.23351
G1 X122.510 Y113.340 E6.30662
G1 X121.660 Y113.570 E6.36222
G1 X120.500 Y113.780 E6.43666
G1 X119.640 Y113.860 E6.49120
G1 X119.000 Y113.890 E6.53166
G1 X80.990 Y113.890 E8.93182
G1 X80.350 Y113.860 E8.97228
G1 X79.490 Y113.780 E9.02682
G1 X78.330 Y113.570 E9.10126
G1 X77.480 Y113.340 E9.15686
G1 X76.420 Y112.960 E9.22797
G1 X75.630 Y112.600 E9.28279
G1 X75.060 Y112.310 E9.32317
G1 X74.520 Y111.970 E9.36346
G1 X73.810 Y111.470 E9.41830
G1 X72.910 Y110.700 E9.49309
G1 X71.870 Y109.630 E9.58731
G1 X71.500 Y109.140 E9.62608
G1 X71.000 Y108.420 E9.68144
G1 X70.680 Y107.910 E9.71946
G1 X70.400 Y107.380 E9.75731
G1 X70.040 Y106.600 E9.81155
G1 X69.650 Y105.510 E9.88465
G1 X69.420 Y104.660 E9.94026
G1 X69.280 Y104.040 E9.98039
G1 X69.200 Y103.420 E10.01987
G1 X69.130 Y102.560 E10.07435
G1 X69.110 Y102.000 E10.10974
G1 X69.110 Y98.000 E10.36232
G1 X69.130 Y97.450 E10.39707
G1 X69.200 Y96.580 E10.45219
G1 X69.280 Y95.950 E10.49229
G1 X69.420 Y95.330 E10.53242
G1 X69.650 Y94.480 E10.58803
G1 X70.030 Y93.420 E10.65913
G1 X70.390 Y92.630 E10.71395
G1 X70.680 Y92.060 E10.75434
G1 X71.020 Y91.520 E10.79463
G1 X71.520 Y90.810 E10.84947
G1 X72.290 Y89.910 E10.92426
G1 X73.262 Y88.961 E11.01003
G1 F1800.000 E10.01003
G92 E0
G1 X77.484 Y93.840 F7800.000
G1 E1.00000 F1800.000
G1 X78.260 Y93.293 E1.05995 F540.000
G1 X79.119 Y92.889 E1.11990
G1 X80.035 Y92.640 E1.17984
G1 X80.990 Y92.554 E1.24041
G1 X119.010 Y92.554 E3.64117
G1 X119.965 Y92.640 E3.70173
G1 X120.844 Y92.875 E3.75922
G1 X120.978 Y92.934 E3.76841
G1 X121.740 Y93.293 E3.82163
G1 X122.486 Y93.815 E3.87912
G1 X123.185 Y94.514 E3.94152
G1 X123.726 Y95.294 E4.00147
G1 X124.111 Y96.119 E4.05897
G1 X124.360 Y97.035 E4.11892
G1 X124.446 Y97.990 E4.17948
G1 X124.446 Y102.010 E4.43329
G1 X124.360 Y102.965 E4.49385
G1 X124.125 Y103.844 E4.55135
G1 X123.726 Y104.706 E4.61130
G1 X123.185 Y105.486 E4.67124
G1 X122.516 Y106.160 E4.73119
G1 X121.740 Y106.707 E4.79114
G1 X120.881 Y107.111 E4.85109
G1 X119.927 Y107.367 E4.91349
G1 X119.010 Y107.446 E4.97160
G1 X80.990 Y107.446 E7.37236
G1 X80.035 Y107.360 E7.43292
G1 X79.119 Y107.111 E7.49287
G1 X78.294 Y106.726 E7.55036
G1 X77.514 Y106.185 E7.61031
G1 X76.840 Y105.516 E7.67026
G1 X76.274 Y104.706 E7.73266
G1 X75.889 Y103.881 E7.79016
G1 X75.640 Y102.965 E7.85010
G1 X75.554 Y102.010 E7.91067
G1 X75.554 Y97.990 E8.16448
G1 X75.640 Y97.035 E8.22504
G1 X75.889 Y96.119 E8.28499
G1 X76.274 Y95.294 E8.34248
G1 X76.815 Y94.514 E8.40243
G1 X77.390 Y93.935 E8.45393
G1 X78.109 Y94.554 F7800.000
G1 X78.751 Y94.105 E8.50344 F378.000
G1 X79.462 Y93.773 E8.55295
G1 X80.219 Y93.570 E8.60246
G1 X81.022 Y93.500 E8.65335
G1 X118.978 Y93.500 E11.05012
G1 X119.781 Y93.570 E11.10102
G1 X120.578 Y93.792 E11.15323
G1 X121.249 Y94.105 E11.20000
G1 X121.891 Y94.554 E11.24951
G1 X122.446 Y95.109 E11.29902
G1 X122.895 Y95.751 E11.34853
G1 X123.227 Y96.462 E11.39804
G1 X123.430 Y97.219 E11.44755
G1 X123.500 Y98.022 E11.49845
G1 X123.500 Y101.978 E11.74827
G1 X123.430 Y102.781 E11.79917
G1 X123.227 Y103.538 E11.84868
G1 X122.895 Y104.249 E11.89819
G1 X122.446 Y104.891 E11.94770
G1 X121.891 Y105.446 E11.99721
G1 X121.249 Y105.895 E12.04672
G1 X120.538 Y106.227 E12.09623
G1 X119.781 Y106.430 E12.14574
G1 X118.978 Y106.500 E12.19663
G1 X81.022 Y106.500 E14.59341
G1 X80.219 Y106.430 E14.64430
G1 X79.462 Y106.227 E14.69381
G1 X78.751 Y105.895 E14.74332
G1 X78.109 Y105.446 E14.79283
G1 X77.554 Y104.891 E14.84234
G1 X77.105 Y104.249 E14.89185
G1 X76.773 Y103.538 E14.94136
G1 X76.570 Y102.781 E14.99087
G1 X76.500 Y101.978 E15.04177
G1 X76.500 Y98.022 E15.29159
G1 X76.570 Y97.219 E15.34249
G1 X76.773 Y96.462 E15.39200
G1 X77.105 Y95.751 E15.44151
G1 X77.554 Y95.109 E15.49102
G1 X78.014 Y94.649 E15.53207
G1 X78.837 Y94.844 F7800.000
G1 X79.199 Y94.881 F7800.000
G1 X79.768 Y94.615 E15.57172 F540.000
G1 X80.375 Y94.453 E15.61137
G1 X81.061 Y94.393 E15.65487
G1 X85.584 Y94.393 E15.94052
G1 X85.584 Y105.607 E16.64867
G1 X81.061 Y105.607 E16.93432
G1 X80.375 Y105.547 E16.97782
G1 X79.768 Y105.385 E17.01747
G1 X79.199 Y105.119 E17.05712
G1 X78.685 Y104.759 E17.09676
G1 X78.241 Y104.315 E17.13641
G1 X77.881 Y103.801 E17.17606
G1 X77.290 Y102.534 E17.26431
G1 X77.454 Y102.377 E17.27865
G1 X79.059 Y103.209 E17.39284
G1 X79.968 Y103.398 E17.45141
G1 X80.893 Y103.335 E17.50998
G1 X81.767 Y103.024 E17.56855
G1 X82.525 Y102.489 E17.62711
G1 X83.110 Y101.770 E17.68568
G1 X83.479 Y100.919 E17.74425
G1 X83.606 Y100.000 E17.80282
G1 X83.479 Y99.081 E17.86139
G1 X83.110 Y98.230 E17.91995
G1 X82.525 Y97.511 E17.97852
G1 X81.767 Y96.976 E18.03709
G1 X80.893 Y96.665 E18.09566
G1 X79.968 Y96.602 E18.15423
G1 X79.059 Y96.791 E18.21279
G1 X77.454 Y97.623 E18.32699
G1 X77.290 Y97.466 E18.34133
G1 X77.881 Y96.199 E18.42958
G1 X78.241 Y95.685 E18.46922
G1 X78.685 Y95.241 E18.50887
G1 X79.089 Y94.957 E18.54006
G1 X81.136 Y95.285 F7800.000
G1 X84.692 Y95.285 E18.76457 F540.000
G1 X84.692 Y98.760 E18.98398
G1 X83.140 Y96.852 E19.13928
G1 X82.181 Y96.176 E19.21335
G1 X81.052 Y95.775 E19.28903
G1 X81.114 Y95.417 E19.31192
G1 X84.692 Y101.240 F7800.000
G1 X84.692 Y104.715 E19.53134 F540.000
G1 X81.136 Y104.715 E19.75585
G1 X81.052 Y104.225 E19.78719
G1 X82.181 Y103.824 E19.86288
G1 X83.140 Y103.148 E19.93694
G1 X84.607 Y101.344 E20.08379
G1 F1800.000 E19.08379
G92 E0
G1 X94.784 Y104.185 F7800.000
G1 E1.00000 F1800.000
G1 X95.568 Y104.723 E1.06004 F540.000
G1 X96.625 Y105.196 E1.13316
G1 X96.537 Y105.607 E1.15972
G1 X94.784 Y105.607 E1.27040
G1 X94.784 Y104.319 E1.35178
G1 X95.583 Y106.000 F7800.000
G1 X85.583 Y106.000 F7800.000
G1 X85.977 Y100.533 F7800.000
G1 X79.895 Y94.175 F7800.000
G1 X99.878 Y94.000 F7800.000
G1 X94.903 Y95.703 F7800.000
G1 X94.903 Y94.393 E1.43450 F540.000
G1 X96.450 Y94.393 E1.53218
G1 X96.533 Y94.682 E1.55120
G1 X95.016 Y95.632 E1.66418
G1 F1800.000 E0.66418
G92 E0
G1 X97.745 Y98.546 F7800.000
G1 E1.00000 F1800.000
G1 X97.935 Y98.402 E1.01503 F540.000
G1 X98.156 Y98.321 E1.02989
G1 X98.467 Y98.295 E1.04961
G1 X98.764 Y98.336 E1.06854
G1 X98.953 Y98.414 E1.08144
G1 X99.105 Y98.541 E1.09396
G1 X99.244 Y98.740 E1.10929
G1 X99.399 Y99.103 E1.13422
G1 X99.614 Y99.924 E1.18778
G1 X102.735 Y98.978 E1.39371
G1 X102.735 Y101.239 E1.53649
G1 X99.561 Y100.538 E1.74174
G1 X99.244 Y101.306 E1.79421
G1 X99.108 Y101.470 E1.80759
G1 X98.895 Y101.620 E1.82409
G1 X98.764 Y101.670 E1.83294
G1 X98.514 Y101.705 E1.84885
G1 X98.256 Y101.690 E1.86518
G1 X98.010 Y101.601 E1.88172
G1 X97.835 Y101.476 E1.89528
G1 X97.662 Y101.267 E1.91243
G1 X97.547 Y101.019 E1.92968
G1 X97.460 Y100.626 E1.95510
G1 X97.424 Y100.030 E1.99278
G1 X97.455 Y99.397 E2.03278
G1 X97.543 Y98.929 E2.06289
G1 X97.665 Y98.653 E2.08192
G1 F1800.000 E1.08192
G92 E0
G1 X101.842 Y104.403 F7800.000
G1 E1.00000 F1800.000
G1 X101.842 Y105.607 E1.07605 F540.000
G1 X100.358 Y105.607 E1.16975
G1 X100.272 Y105.273 E1.19154
G1 X101.725 Y104.468 E1.29645
G1 F1800.000 E0.29645
G92 E0
G1 X109.113 Y100.883 F7800.000
G1 E1.00000 F1800.000
G1 X111.419 Y97.104 E1.27956 F540.000
G1 X111.718 Y97.188 E1.29916
G1 X111.718 Y103.588 E1.70332
G1 X109.206 Y100.980 E1.93198
G1 F1800.000 E0.93198
G92 E0
G1 X116.010 Y99.436 F7800.000
G1 E1.00000 F1800.000
G1 X119.732 Y99.436 E1.23503 F540.000
G1 X119.732 Y94.382 E1.55420
G1 X120.801 Y94.881 E1.62871
G1 X121.315 Y95.241 E1.66836
G1 X121.759 Y95.685 E1.70801
G1 X122.119 Y96.199 E1.74765
G1 X122.385 Y96.768 E1.78730
G1 X122.547 Y97.375 E1.82695
G1 X122.607 Y98.061 E1.87045
G1 X122.607 Y101.939 E2.11535
G1 X122.547 Y102.625 E2.15885
G1 X122.385 Y103.232 E2.19850
G1 X122.119 Y103.801 E2.23815
G1 X121.759 Y104.315 E2.27779
G1 X121.315 Y104.759 E2.31744
G1 X120.801 Y105.119 E2.35709
G1 X120.232 Y105.385 E2.39674
G1 X119.625 Y105.547 E2.43638
G1 X118.939 Y105.607 E2.47988
G1 X116.010 Y105.607 E2.66488
G1 X116.010 Y99.570 E3.04609
G1 X116.902 Y100.329 F7800.000
G1 X120.624 Y100.329 E3.28111 F540.000
G1 X120.624 Y96.044 E3.55173
G1 X121.021 Y95.956 E3.57739
G1 X121.543 Y97.075 E3.65535
G1 X121.665 Y97.530 E3.68513
G1 X121.715 Y98.100 E3.72124
G1 X121.715 Y101.900 E3.96122
G1 X121.665 Y102.470 E3.99733
G1 X121.543 Y102.925 E4.02711
G1 X121.343 Y103.353 E4.05689
G1 X121.073 Y103.739 E4.08668
G1 X120.739 Y104.073 E4.11646
G1 X120.353 Y104.343 E4.14625
G1 X119.925 Y104.543 E4.17603
G1 X119.470 Y104.665 E4.20581
G1 X118.900 Y104.715 E4.24192
G1 X116.902 Y104.715 E4.36808
G1 X116.902 Y100.463 E4.63655
G1 X115.117 Y98.544 F7800.000
G1 X115.117 Y104.366 E5.00421 F378.000
G1 X107.884 Y104.366 E5.46095
G1 X106.128 Y102.302 E5.63205
G1 X106.128 Y104.366 E5.76240
G1 X102.735 Y104.366 E5.97670
G1 X102.735 Y102.098 E6.11996
G1 X102.441 Y102.014 E6.13926
G1 X101.790 Y103.066 E6.21733
G1 X101.366 Y103.541 E6.25759
G1 X100.884 Y103.913 E6.29605
G1 X100.586 Y104.079 E6.31758
G1 X99.998 Y104.304 E6.35732
G1 X99.296 Y104.448 E6.40254
G1 X98.447 Y104.501 E6.45626
G1 X97.621 Y104.450 E6.50854
G1 X97.335 Y104.405 E6.52684
G1 X96.638 Y104.224 E6.57229
G1 X96.007 Y103.941 E6.61597
G1 X95.441 Y103.553 E6.65933
G1 X94.954 Y103.059 E6.70308
G1 X94.157 Y101.868 E6.79359
G1 X93.892 Y101.949 E6.81108
G1 X93.892 Y104.366 E6.96373
G1 X86.477 Y104.366 E7.43192
G1 X86.477 Y95.634 E7.98332
G1 X94.010 Y95.634 E8.45899
G1 X94.010 Y97.893 E8.60163
G1 X94.225 Y97.966 E8.61598
G1 X95.179 Y96.726 E8.71477
G1 X95.669 Y96.276 E8.75679
G1 X96.186 Y95.953 E8.79528
G1 X96.754 Y95.729 E8.83381
G1 X97.460 Y95.573 E8.87950
G1 X98.379 Y95.501 E8.93768
G1 X99.212 Y95.530 E8.99031
G1 X99.911 Y95.649 E9.03509
G1 X100.499 Y95.854 E9.07441
G1 X101.068 Y96.183 E9.11596
G1 X101.555 Y96.607 E9.15670
G1 X102.523 Y97.851 E9.25626
G1 X102.735 Y97.779 E9.27036
G1 X102.735 Y95.634 E9.40580
G1 X106.128 Y95.634 E9.62010
G1 X106.128 Y97.788 E9.75610
G1 X106.745 Y98.437 E9.81266
G1 X108.174 Y95.634 E10.01137
G1 X118.839 Y95.634 E10.68480
G1 X118.839 Y98.544 E10.86855
G1 X115.251 Y98.544 E11.09512
G1 X115.563 Y99.317 F7800.000
G1 X115.415 Y104.866 F7800.000
G1 X85.583 Y106.000 F7800.000
G1 X82.705 Y100.000 F7800.000
G1 X82.612 Y100.676 E11.13820 F540.000
G1 X82.340 Y101.301 E11.18127
G1 X81.910 Y101.831 E11.22434
G1 X81.352 Y102.224 E11.26741
G1 X80.710 Y102.452 E11.31049
G1 X80.029 Y102.499 E11.35356
G1 X79.361 Y102.360 E11.39663
G1 X78.756 Y102.046 E11.43970
G1 X78.257 Y101.581 E11.48278
G1 X77.903 Y100.998 E11.52585
G1 X77.719 Y100.341 E11.56892
G1 X77.719 Y99.659 E11.61199
G1 X77.869 Y99.121 E11.64729
G1 X77.903 Y99.002 E11.65507
G1 X78.257 Y98.419 E11.69814
G1 X78.756 Y97.954 E11.74121
G1 X79.361 Y97.640 E11.78428
G1 X80.029 Y97.501 E11.82735
G1 X80.710 Y97.548 E11.87043
G1 X81.352 Y97.776 E11.91350
G1 X81.910 Y98.169 E11.95657
G1 X82.340 Y98.699 E11.99964
G1 X82.612 Y99.324 E12.04272
G1 X82.686 Y99.867 E12.07733
G1 X83.279 Y100.368 F7800.000
G1 F1800.000 E11.07733
G92 E0
G1 X90.144 Y98.653 F7800.000
G1 E1.00000 F1800.000
G1 X93.271 Y98.653 E1.19745 F378.000
G1 X93.452 Y98.334 E1.22066
G1 X93.748 Y99.015 F7800.000
G1 X93.832 Y100.792 E1.33301 F378.000
G1 X94.410 Y101.224 E1.37857
G1 X93.832 Y100.792 F7800.000
G1 X92.741 Y101.601 E1.46430 F378.000
G1 X93.168 Y102.122 E1.50684
G1 X92.741 Y101.601 F7800.000
G1 X89.994 Y101.601 E1.68029 F378.000
G1 X89.599 Y101.155 E1.71794
G1 F1800.000 E0.71794
G92 E0
G1 X117.559 Y104.077 F7800.000
G1 E1.00000 F1800.000
G1 X117.539 Y104.057 E1.00187 F1080.000
G1 X117.539 Y102.736 E1.08926
G1 X118.881 Y104.077 E1.21465
G1 X119.953 Y103.827 E1.28743
G1 X117.539 Y101.414 E1.51306
G1 X118.414 Y100.966 E1.57800
G1 X120.662 Y103.215 E1.78823
G1 X121.042 Y102.273 E1.85537
G1 X119.736 Y100.966 E1.97755
G1 X121.057 Y100.966 E2.06494
G1 X121.077 Y100.986 E2.06681
G1 X118.795 Y94.456 F7800.000
G1 X118.775 Y94.436 E2.06870 F360.000
G1 X117.695 Y94.697 E2.14325 F360.000
G1 X117.434 Y94.436 E2.16802 F360.000
G1 X116.354 Y94.697 E2.24257 F360.000
G1 X116.093 Y94.436 E2.26735 F360.000
G1 X115.013 Y94.697 E2.34189 F360.000
G1 X114.751 Y94.436 E2.36667 F360.000
G1 X113.671 Y94.697 E2.44121 F360.000
G1 X113.410 Y94.436 E2.46599 F360.000
G1 X112.247 Y94.614 E2.54495 F360.000
G1 X112.069 Y94.436 E2.56181 F360.000
G1 X110.989 Y94.697 E2.63635 F360.000
G1 X110.728 Y94.436 E2.66113 F360.000
G1 X109.648 Y94.697 E2.73567 F360.000
G1 X109.387 Y94.436 E2.76045 F360.000
G1 X108.306 Y94.697 E2.83500 F360.000
G1 X108.045 Y94.436 E2.85977 F360.000
G1 X107.386 Y95.118 E2.92340 F360.000
G1 X107.065 Y94.797 E2.95388 F360.000
G1 X106.965 Y94.697 E2.96332 F360.000
G1 X106.704 Y94.436 E2.98809 F360.000
G1 X105.624 Y94.697 E3.06264 F360.000
G1 X105.363 Y94.436 E3.08741 F360.000
G1 X104.283 Y94.697 E3.16196 F360.000
G1 X104.022 Y94.436 E3.18673 F360.000
G1 X102.942 Y94.697 E3.26128 F360.000
G1 X102.680 Y94.436 E3.28605 F360.000
G1 X101.798 Y94.895 E3.35277 F360.000
G1 X101.339 Y94.436 E3.39632 F360.000
G1 X100.383 Y94.822 E3.46546 F360.000
G1 X99.998 Y94.436 E3.50202 F360.000
G1 X98.799 Y94.579 E3.58303 F360.000
G1 X98.657 Y94.436 E3.59652 F360.000
G1 X97.485 Y94.606 E3.67593 F360.000
G1 X97.509 Y94.630 E3.67820 F360.000
G1 X93.966 Y94.456 F7800.000
G1 X93.946 Y94.436 E3.68001 F360.000
G1 X92.930 Y94.697 E3.74709 F360.000
G1 X92.669 Y94.436 E3.77070 F360.000
G1 X91.652 Y94.697 E3.83778 F360.000
G1 X91.391 Y94.436 E3.86138 F360.000
